X: 43353
T: Wren's Nest, The
R: jig
M: 6/8
K: Edorian
|:GAB ded|cAA A2c|BGE EFG|AFD AFD|
GAB ded|cAA A2c|BGE AFD|GEE E2D:|
|:E2e d2B|cBA B2A|GAB ded|cAA BAG|
E2e d2B|cBA B2A|GAB cAB|GEE FED:|
|:B,EE GED|B,EE E2D|B,EE GAB|AFD AFD|
B,EE GED|B,EE E2D|GAB cAB|GEE FED:|

